X:168
%%etbk:tnset id:55,pos:4,rep:3
%%etbk:site1 http://www.thesession.org/tunes/display/756
%%etbk:color #ffffcc
T: Jennie's Chickens
Z: Piano Box Version by Martin Fleischmann
H: Created 2013-02-19 /  Last Modified 2013-02-19
M: 4/4
L: 1/8
R: reel
K: Bmin
|: "bm"!3!f3f {g}!3!f!1!e!2!c!1!e | !3!f!1!e!3!f!5!a "f#m"!2!e!1!A!2!c!4!e | "bm"!3!f3f {g}!3!f!1!e!2!c!1!e | "f#m"!3!f2!5!a!3!f !2!e!1!A!2!c!4!e :|
|: "bm"!3!f!1!BB!2!A !1!B2B!2!e | !3!f!1!B!2!B!1!B "f#m"!4!e!1!A!2!c!4!e | "bm"!3!f!1!BB!2!A !1!B2B!2!e | "f#m"!3!f2!5!af !2!e!1!A!2!c!4!e :|
|: "bm"!1!B2 !5!bB !4!aB!3!^gB | !1!B2!3!fB "f#m"!3!cB!1!A!3!c | "bm"!1!B2 !5!bB !4!aB!3!^gB |1 "f#m"!3!f2!5!af !2!e!1!A!2!c!4!e :|2 "f#m"!3!f2!5!af !2!e4 :|






